static/images/category.svg

<svg width="32" height="37" viewBox="0 0 32 37" fill="none" xmlns="http://www.w3.org/2000/svg">
<path d="M0 9.25V27.75L15.6 37L31.2 27.75V9.25L15.6 0L0 9.25Z" fill="#FBC5B4"/>
<path d="M25.0001 17.0001H23.9C23.3999 13.4 20.6 10.4999 16.9999 10.1V8.99995C16.9999 8.39995 16.6 8 16 8C15.4 8 15.0001 8.39995 15.0001 8.99995V10.1C11.4 10.5 8.49987 13.4 8.10001 17.0001H6.99995C6.39995 17.0001 6 17.4 6 18C6 18.6 6.39995 18.9999 6.99995 18.9999H8.10001C8.60007 22.6 11.4 25.5001 15.0001 25.9V27.0001C15.0001 27.6001 15.4 28 16 28C16.6 28 16.9999 27.6001 16.9999 27.0001V25.9C20.6 25.3999 23.5001 22.6 23.9 18.9999H25.0001C25.6001 18.9999 26 18.6 26 18C26 17.4 25.6001 17.0001 25.0001 17.0001ZM21.9001 17.0001H18.8001C18.5001 16.2 17.8002 15.5 17.0001 15.2L17 12.0999C19.5001 12.5 21.5 14.4999 21.9003 17.0002L21.9001 17.0001ZM15.9999 18.9999C15.3999 18.9999 15 18.6 15 18C15 17.4 15.3999 17.0001 15.9999 17.0001C16.5999 17.0001 16.9999 17.4 16.9999 18C16.9999 18.6 16.5999 18.9999 15.9999 18.9999ZM15 12.0999V15.1999C14.1999 15.4999 13.5 16.1998 13.2 16.9999L10.0998 17C10.4999 14.4999 12.4998 12.5 15.0001 12.0997L15 12.0999ZM10.0997 18.9999H13.1996C13.4996 19.8 14.1996 20.5 14.9996 20.8V23.8999C12.4997 23.5 10.4996 21.5001 10.0997 19L10.0997 18.9999ZM16.9997 23.9003V20.8003C17.7998 20.5003 18.4997 19.8004 18.7997 19.0003H21.8997C21.4997 21.5002 19.4998 23.5003 16.9998 23.9002L16.9997 23.9003Z" fill="#090940"/>
</svg>

<svg width="32" height="37" fill="none" xmlns="http://www.w3.org/2000/svg">
    <path d="M0 9.25v18.5L15.6 37l15.6-9.25V9.25L15.6 0 0 9.25Z" fill="#FBC5B4"/>
    <path d="M25 17h-1.1c-.5-3.6-3.3-6.5-6.9-6.9V9c0-.6-.4-1-1-1s-1 .4-1 1v1.1c-3.6.4-6.5 3.3-6.9 6.9H7c-.6 0-1 .4-1 1s.4 1 1 1h1.1c.5 3.6 3.3 6.5 6.9 6.9V27c0 .6.4 1 1 1s1-.4 1-1v-1.1c3.6-.5 6.5-3.3 6.9-6.9H25c.6 0 1-.4 1-1s-.4-1-1-1Zm-3.1 0h-3.1c-.3-.8-1-1.5-1.8-1.8v-3.1c2.5.4 4.5 2.4 4.9 4.9ZM16 19c-.6 0-1-.4-1-1s.4-1 1-1 1 .4 1 1-.4 1-1 1Zm-1-6.9v3.1c-.8.3-1.5 1-1.8 1.8h-3.1c.4-2.5 2.4-4.5 4.9-4.9ZM10.1 19h3.1c.3.8 1 1.5 1.8 1.8v3.1c-2.5-.4-4.5-2.4-4.9-4.9Zm6.9 4.9v-3.1c.8-.3 1.5-1 1.8-1.8h3.1c-.4 2.5-2.4 4.5-4.9 4.9Z" fill="#090940"/>
</svg>
